svgs/light/glasses.svg

<svg xmlns="http://www.w3.org/2000/svg" viewBox="0 0 576 512"><!--! Font Awesome Pro 6.3.0 by @fontawesome - https://fontawesome.com License - https://fontawesome.com/license (Commercial License) Copyright 2023 Fonticons, Inc. --><path d="M563.1 232.8l-30.61-120.8c-13.92-54.87-66.63-89.12-119.8-77.84c-8.641 1.812-14.19 10.31-12.36 18.94c1.812 8.687 10.31 14.37 18.95 12.37c36.33-7.656 72.53 16.22 82.2 54.4l30.61 120.8c2.578 10.16 4.076 20.56 5.82 30.9c-22.35-7.591-53.09-15.03-89.3-15.03c-37.25 0-80.25 7.1-125 31.5H252.4c-44.75-23.5-87.63-31.5-125-31.5c-36.22 0-66.95 7.435-89.3 15.03C39.81 261.2 41.31 250.8 43.89 240.6l30.61-120.8c9.688-38.19 45.91-62.06 82.2-54.4c8.672 1.1 17.14-3.687 18.95-12.37c1.828-8.625-3.719-17.12-12.36-18.94C109.9 22.87 57.38 57.11 43.47 111.1l-30.61 120.8C4.328 266.4 0 301.2 0 336l.0002 33.23C.0002 430.4 50.01 480 111.9 480h36.24c58.63 0 107.3-44.62 111.6-102.5l4.375-57.5h47.75l4.375 57.5C320.6 435.4 369.3 480 427.9 480h36.24c61.88 0 111.9-49.64 111.9-110.8L576 336C576 301.2 571.7 266.4 563.1 232.8zM227.9 375.1c-3.125 40.87-38.13 72.87-79.75 72.87H112c-44.13 0-80-35.25-80-78.75v-33.25c0-9.595 1.072-19.12 1.781-28.68c19.06-7.959 52.58-18.82 93.59-18.82c36.38 0 71.63 8.5 105.1 25.12L227.9 375.1zM544 369.3c0 43.5-35.88 78.75-80 78.75h-36.13c-41.63 0-76.63-31.1-79.75-72.87L343.5 313.6c33.5-16.62 68.75-25.12 105.1-25.12c41.13 0 74.54 10.86 93.59 18.82C542.9 316.9 544 326.4 544 336V369.3z"/></svg>

<svg xmlns="http://www.w3.org/2000/svg" viewBox="0 0 576 512"><!-- Font Awesome Pro 6.0.0-alpha2 by @fontawesome - https://fontawesome.com License - https://fontawesome.com/license (Commercial License) --><path d="M563.141 232.762L532.531 111.986C518.609 57.114 465.906 22.865 412.703 34.146C404.062 35.959 398.516 44.458 400.344 53.083C402.156 61.77 410.656 67.457 419.297 65.457C455.625 57.801 491.828 81.675 501.5 119.861L532.109 240.636C534.688 250.798 536.186 261.194 537.93 271.537C515.578 263.946 484.842 256.511 448.625 256.511C411.375 256.511 368.375 264.51 323.625 288.009H252.375C207.625 264.51 164.75 256.511 127.375 256.511C91.158 256.511 60.422 263.946 38.07 271.537C39.814 261.194 41.312 250.798 43.891 240.636L74.5 119.861C84.188 81.675 120.406 57.801 156.703 65.457C165.375 67.457 173.844 61.77 175.656 53.083C177.484 44.458 171.938 35.959 163.297 34.146C109.875 22.865 57.375 57.114 43.469 111.986L12.859 232.762C4.328 266.416 0 301.165 0 336.007V369.255C0 430.377 50.125 480 112 480H148.125C206.75 480 255.375 435.377 259.75 377.505L264.125 320.008H311.875L316.25 377.505C320.625 435.377 369.25 480 427.875 480H464C525.875 480 576 430.377 576 369.255V336.007C576 301.165 571.672 266.416 563.141 232.762ZM227.875 375.13C224.75 416.003 189.75 448.002 148.125 448.002H112C67.875 448.002 32 412.753 32 369.255V336.007C32 326.412 33.072 316.885 33.781 307.33C52.84 299.372 86.359 288.509 127.375 288.509C163.75 288.509 199 297.009 232.5 313.633L227.875 375.13ZM544 369.255C544 412.753 508.125 448.002 464 448.002H427.875C386.25 448.002 351.25 416.003 348.125 375.13L343.5 313.633C377 297.009 412.25 288.509 448.625 288.509C489.76 288.509 523.166 299.372 542.219 307.33C542.928 316.885 544 326.412 544 336.007V369.255Z"/></svg>
